X:31
T:Muzzle Hill
M:2/4
L:1/8
B:Thompson's Compleat Collection of 200 Favourite Country Dances, vol. 2 (London, 1765)
Z:Transcribed and edited by Flynn Titford-Mock, 2007
Z:abc's:AK/Fiddler's Companion
K:A
c2 "tr"BA | a2 "tr"gf | ecBA | GABG | E2 (3ABc | B2 (3Bcd | cAac | "tr"c2B2 | c2 "tr"BA | a2 "tr"gf | ecBA |
GABG | E2 (3ABc | B2 (3Bcd | cABG A2 [A,2A2] :: e2 (3cBA | defd | BcdB | GABG | E2 (3ABc |
BcdB | cAac | "tr"c2B2 | e2 (3cBA | defd | BcdB | GABG | E2 (3ABc | BcdB | cABG | A2 [A,2A2] :|

